X:251
T:Mullinavat
Z: id:dc-reel-231
M:C
L:1/8
K:E Dorian
ef|g2fg edBA|GAFA E2BE|GEBE GABc|dBBA B2ef|!
g2fg edBA|GAFA E2EF|GFED EFGA|Beed e2:|!
ef|gBB2 gabg|f2fe fgaf|gBB2 gabg|fedf e3f|!
g2gf gbag|f2fe fga2|bgaf gfed|Bgfg e2:|!

